public/icons/eye-close.svg

<svg width="16" height="16" viewBox="0 0 16 16" fill="none" xmlns="http://www.w3.org/2000/svg">
<rect width="16" height="16" fill="white"/>
<path d="M7.87636 5.36364L10.1818 7.66182C10.1818 7.62545 10.1818 7.58182 10.1818 7.54545C10.1818 6.9668 9.95195 6.41185 9.54278 6.00268C9.13361 5.59351 8.57865 5.36364 8 5.36364C7.95636 5.36364 7.92 5.36364 7.87636 5.36364ZM4.74909 5.94545L5.87636 7.07273C5.84 7.22545 5.81818 7.37818 5.81818 7.54545C5.81818 8.12411 6.04805 8.67906 6.45722 9.08823C6.86639 9.4974 7.42135 9.72727 8 9.72727C8.16 9.72727 8.32 9.70545 8.47273 9.66909L9.6 10.7964C9.11273 11.0364 8.57455 11.1818 8 11.1818C7.03558 11.1818 6.11065 10.7987 5.4287 10.1168C4.74675 9.4348 4.36364 8.50988 4.36364 7.54545C4.36364 6.97091 4.50909 6.43273 4.74909 5.94545ZM0.727273 1.92364L2.38545 3.58182L2.71273 3.90909C1.51273 4.85455 0.567273 6.09091 0 7.54545C1.25818 10.7382 4.36364 13 8 13C9.12727 13 10.2036 12.7818 11.1855 12.3891L11.4982 12.6945L13.6218 14.8182L14.5455 13.8945L1.65091 1M8 3.90909C8.96442 3.90909 9.88935 4.29221 10.5713 4.97416C11.2532 5.65611 11.6364 6.58103 11.6364 7.54545C11.6364 8.01091 11.5418 8.46182 11.3745 8.86909L13.5055 11C14.5964 10.0909 15.4691 8.89818 16 7.54545C14.7418 4.35273 11.6364 2.09091 8 2.09091C6.98182 2.09091 6.00727 2.27273 5.09091 2.6L6.66909 4.16364C7.08364 4.00364 7.52727 3.90909 8 3.90909Z" fill="#9FA6B2"/>
</svg>

<svg xmlns="http://www.w3.org/2000/svg" width="16" height="16" fill="none"><path fill="#fff" d="M0 0h16v16H0z"/><path fill="#9FA6B2" d="m7.876 5.364 2.306 2.298v-.117A2.182 2.182 0 0 0 8 5.364h-.124Zm-3.127.581 1.127 1.128a2.004 2.004 0 0 0-.058.472A2.182 2.182 0 0 0 8 9.727c.16 0 .32-.022.473-.058L9.6 10.796a3.605 3.605 0 0 1-1.6.386 3.637 3.637 0 0 1-3.636-3.637c0-.574.145-1.112.385-1.6ZM.727 1.924l1.658 1.658.328.327A8.606 8.606 0 0 0 0 7.545C1.258 10.738 4.364 13 8 13a8.565 8.565 0 0 0 3.185-.61l.313.304 2.124 2.124.924-.923L1.65 1M8 3.91a3.636 3.636 0 0 1 3.636 3.635c0 .466-.094.917-.261 1.324L13.505 11A8.613 8.613 0 0 0 16 7.545c-1.258-3.192-4.364-5.454-8-5.454a8.616 8.616 0 0 0-2.91.509l1.58 1.564c.414-.16.857-.255 1.33-.255Z"/></svg>
